X: 21860
T: Kiss Behind The Door, The
R: barndance
M: 4/4
K: Gmajor
D2B2 BA B^c|d2^c2dc de|fe dc AG FG|AB GD (3FGF EF|
D2B2 BA B^c|d2^c2dc de|fe dc AG FG|1 (3ABA G2 G2 GE:|2 (3ABA G2 G2Gf||
gd Bd ~g2ga|f2e2edeg|fd Ad ~f2 fg|ed d^c d2 ef|
gd Bd ~g2ga|f2e2e2e^c|d2 fe dc BF|1 G2 BA G2Gf:|2 G2 B2 G2(3GFE||

